public/assets/BG11.svg

<svg width="4199" height="930" fill="none" xmlns="http://www.w3.org/2000/svg"><path d="M3150.15 300.593l-13.22-100.62-20.26 346.8L660 734.394l2255.37 206.151h1283.01L3144 330.817l15.92-5.135-9.77-25.089z" fill="#2E5A9C"/><g clip-path="url(#clip0)" fill="#2E5A9C"><path fill-rule="evenodd" clip-rule="evenodd" d="M8.628 739.669L.26 605.992l33.473-46.323 73.641-1.324 33.473 41.03 16.737-13.236-3.347-33.088 16.736-74.118 13.39 67.5 26.778-41.029 36.821 1.324v-30.442l-5.021-7.941 8.368-3.97 10.042-25.147 15.063-111.177-3.347-7.941 5.021-5.294 1.674-13.236h-21.758v-6.617l20.084-1.324v-21.176l11.716-1.324-1.674 21.177h10.042l1.673 10.588-11.715-3.971-1.674 11.912 3.348 7.941-5.022 9.265 5.022 68.824 6.694 35.735 16.737 33.088 8.368 3.971-5.021 9.264 1.674 27.795 8.368-6.618 38.494 47.647 6.695 42.353 48.536-2.647 1.674-17.206 30.126-38.382 6.695-1.324 1.673-13.235-5.021-5.294 18.411-60.883 3.347-29.117 1.674 45 18.41 42.353-3.347 19.853 35.147 1.323 23.431 34.412-1.674 33.088 10.042-17.206 120.504 1.324 1.674-25.147 50.21-37.059-5.021-45-6.695-1.324 35.147-67.5 16.736-78.088-5.02-14.559 8.368-3.97 5.021 1.323 1.674 7.941 15.062 88.677 10.043-18.53 1.673-46.323 10.042 50.294 8.368 27.794-1.673 41.03 3.347 9.264-8.368 3.971 1.673 50.294 41.842 30.441 13.389-10.588 30.126-2.647-3.347-26.471 26.779-37.059-1.674-50.294 15.063-66.176 1.674-38.383 5.021 27.795 6.694 38.382 26.779-104.559 1.674-154.853 8.368 3.971 13.39 153.529 20.08 112.5 6.7-70.147 10.04 55.588 6.69 35.736 1.68 48.97 18.41 1.324-3.35-51.618 8.37-31.765s5.02-60.882 6.69-60.882c1.68 0 8.37 58.235 8.37 58.235l11.72-41.029 6.69-54.265 5.02-86.029 5.02-93.971 16.74 154.853 26.78 132.353 11.72-64.853 5.02 60.882 10.04 25.148-5.02 6.617 1.67 91.324 26.78-23.824v-10.588l8.37-5.294v-10.588l5.02-3.971 3.35-22.5 1.67 26.471 5.02 3.97-1.67 10.588 5.02 1.324-1.68 13.235 18.42 19.853 1.67 34.412h28.45l11.72 9.265 8.37-7.941 13.38 2.647 11.72-13.236-18.41-2.647 8.37-11.912 15.06 2.648 5.02-15.883-8.37-7.941 8.37-7.941 11.72 7.941-1.68 5.294 1.68 17.206 15.06 1.324-1.67 7.941-10.04-1.324 8.36 15.883s21.76 0 21.76 1.323c0 1.324-3.35 11.912-3.35 11.912l-8.36-1.324 18.41 22.5 11.71-10.588-1.67-128.382-6.7-2.647 11.72-19.853 6.69-39.706 1.68-43.677 5.02-1.323 5.02 63.529 8.37 35.736 15.06-99.265 6.69-96.618 5.03-55.588h6.69l16.74 168.088 11.71 71.471 6.7 21.176 11.71-21.176 1.68-76.765 5.02 1.324 10.04 80.735 5.02 17.206v37.059l137.24 3.97 11.72 2.647 28.45 47.647 3.35-51.617-15.07-3.971 46.87-59.559 1.67 315L8.628 739.669z"/><path fill-rule="evenodd" clip-rule="evenodd" d="M1690.63 628.217l-8.37-133.676 33.47-46.324 73.64-1.323 33.48 41.029 16.73-13.235-3.35-33.088 16.74-74.118 13.39 67.5 26.78-41.029 36.82 1.323v-30.441l-5.02-7.941 8.37-3.971 10.04-25.147 15.06-111.176-3.35-7.941 5.03-5.294 1.67-13.236H1940v-6.617l20.09-1.324v-21.176l11.71-1.324-1.67 21.177h10.04l1.67 10.588-11.71-3.971-1.68 11.912 3.35 7.941-5.02 9.265 5.02 68.823 6.7 35.736 16.73 33.088 8.37 3.97-5.02 9.265 1.67 27.794 8.37-6.617 38.5 47.647 6.69 42.353 48.54-2.647 1.67-17.206 30.13-38.383 6.69-1.323 1.68-13.235-5.03-5.295 18.41-60.882 3.35-29.118 1.68 45 18.41 42.353-3.35 19.853 35.15 1.324 23.43 34.412-1.68 33.088 10.05-17.206 120.5 1.324 1.67-25.148 50.21-37.058-5.02-45-6.69-1.324 35.14-67.5 16.74-78.088-5.02-14.559 8.37-3.971 5.02 1.324 1.67 7.941 15.07 88.677 10.04-18.53 1.67-46.323 10.04 50.294 8.37 27.794-1.67 41.029 3.35 9.265-8.37 3.971 1.67 50.294 41.84 30.441 13.39-10.588 30.13-2.647-3.35-26.471 26.78-37.059-1.67-50.294 15.06-66.176 1.67-38.383 5.02 27.794 6.7 38.383 26.78-104.559 1.67-154.853 8.37 3.97 13.39 153.53 20.08 112.5 6.7-70.147 10.04 55.588 6.69 35.735 1.68 48.971 18.41 1.324-3.35-51.618 8.37-31.765s5.02-60.882 6.69-60.882c1.68 0 8.37 58.235 8.37 58.235l11.72-41.029 6.69-54.265 5.02-86.03 5.02-93.97 16.74 154.853 26.78 132.353 11.71-64.853 5.02 60.882 10.05 25.147-5.02 6.618 1.67 91.324 26.78-23.824v-10.588l8.37-5.294V355.57l5.02-3.97 3.34-22.5 1.68 26.47 5.02 3.971-1.67 10.588 5.02 1.324-1.68 13.235 18.41 19.853 1.68 34.412h28.45l11.71 9.264 8.37-7.941 13.39 2.647 11.72-13.235-18.41-2.647 8.37-11.912 15.06 2.647 5.02-15.882-8.37-7.941 8.37-7.941 11.72 7.941-1.68 5.294 1.68 17.206 15.06 1.323-1.67 7.941-10.05-1.323 8.37 15.882s21.76 0 21.76 1.324c0 1.323-3.35 11.912-3.35 11.912l-8.37-1.324 18.41 22.5 11.72-10.588-1.67-128.383-6.7-2.647 11.72-19.853 6.69-39.705 1.67-43.677 5.03-1.323 5.02 63.529 8.37 35.735 15.06-99.264 6.69-96.618 5.02-55.588h6.7l16.74 168.088 11.71 71.471 6.7 21.176 11.71-21.176 1.67-76.765 5.03 1.323 10.04 80.736 5.02 17.206v37.058l137.24 3.971 11.71 2.647 28.46 47.647 3.34-51.618-15.06-3.97 46.86-59.559 1.68 315-1745.63-1.324z"/><path d="M1722.14 587.613h1714.11v153.379H1722.14z"/></g><defs><clipPath id="clip0"><path fill="#fff" d="M0 0h3137v1024H0z"/></clipPath></defs></svg>

<svg width="4199" height="930" viewBox="0 0 4199 930" fill="none" xmlns="http://www.w3.org/2000/svg">
<path d="M3150.15 300.593L3136.93 199.973L3116.67 546.773L660 734.394L2915.37 940.545H4198.38L3144 330.817L3159.92 325.682L3150.15 300.593Z" fill="#2E5A9C"/>
<g clip-path="url(#clip0)">
<path fill-rule="evenodd" clip-rule="evenodd" d="M8.62805 739.669L0.259644 605.992L33.7329 559.669L107.374 558.345L140.847 599.375L157.584 586.139L154.237 553.051L170.973 478.933L184.363 546.433L211.141 505.404L247.962 506.728V476.286L242.941 468.345L251.309 464.375L261.351 439.228L276.414 328.051L273.067 320.11L278.088 314.816L279.762 301.58H258.004V294.963L278.088 293.639V272.463L289.804 271.139L288.13 292.316H298.172L299.845 302.904L288.13 298.933L286.456 310.845L289.804 318.786L284.782 328.051L289.804 396.875L296.498 432.61L313.235 465.698L321.603 469.669L316.582 478.933L318.256 506.728L326.624 500.11L365.118 547.757L371.813 590.11L420.349 587.463L422.023 570.257L452.149 531.875L458.844 530.551L460.517 517.316L455.496 512.022L473.907 451.139L477.254 422.022L478.928 467.022L497.338 509.375L493.991 529.228L529.138 530.551L552.569 564.963L550.895 598.051L560.937 580.845L681.441 582.169L683.115 557.022L733.325 519.963L728.304 474.963L721.609 473.639L756.756 406.139L773.492 328.051L768.472 313.492L776.84 309.522L781.861 310.845L783.535 318.786L798.597 407.463L808.64 388.933L810.313 342.61L820.355 392.904L828.723 420.698L827.05 461.728L830.397 470.992L822.029 474.963L823.702 525.257L865.544 555.698L878.933 545.11L909.059 542.463L905.712 515.992L932.491 478.933L930.817 428.639L945.88 362.463L947.554 324.08L952.575 351.875L959.269 390.257L986.048 285.698L987.722 130.845L996.09 134.816L1009.48 288.345L1029.56 400.845L1036.26 330.698L1046.3 386.286L1052.99 422.022L1054.67 470.992L1073.08 472.316L1069.73 420.698L1078.1 388.933C1078.1 388.933 1083.12 328.051 1084.79 328.051C1086.47 328.051 1093.16 386.286 1093.16 386.286L1104.88 345.257L1111.57 290.992L1116.59 204.963L1121.61 110.992L1138.35 265.845L1165.13 398.198L1176.85 333.345L1181.87 394.227L1191.91 419.375L1186.89 425.992L1188.56 517.316L1215.34 493.492V482.904L1223.71 477.61V467.022L1228.73 463.051L1232.08 440.551L1233.75 467.022L1238.77 470.992L1237.1 481.58L1242.12 482.904L1240.44 496.139L1258.86 515.992L1260.53 550.404H1288.98L1300.7 559.669L1309.07 551.728L1322.45 554.375L1334.17 541.139L1315.76 538.492L1324.13 526.58L1339.19 529.228L1344.21 513.345L1335.84 505.404L1344.21 497.463L1355.93 505.404L1354.25 510.698L1355.93 527.904L1370.99 529.228L1369.32 537.169L1359.28 535.845L1367.64 551.728C1367.64 551.728 1389.4 551.728 1389.4 553.051C1389.4 554.375 1386.05 564.963 1386.05 564.963L1377.69 563.639L1396.1 586.139L1407.81 575.551L1406.14 447.169L1399.44 444.522L1411.16 424.669L1417.85 384.963L1419.53 341.286L1424.55 339.963L1429.57 403.492L1437.94 439.228L1453 339.963L1459.69 243.345L1464.72 187.757H1471.41L1488.15 355.845L1499.86 427.316L1506.56 448.492L1518.27 427.316L1519.95 350.551L1524.97 351.875L1535.01 432.61L1540.03 449.816V486.875L1677.27 490.845L1688.99 493.492L1717.44 541.139L1720.79 489.522L1705.72 485.551L1752.59 425.992L1754.26 740.992L8.62805 739.669Z" fill="#2E5A9C"/>
<path fill-rule="evenodd" clip-rule="evenodd" d="M1690.63 628.217L1682.26 494.541L1715.73 448.217L1789.37 446.894L1822.85 487.923L1839.58 474.688L1836.23 441.6L1852.97 367.482L1866.36 434.982L1893.14 393.953L1929.96 395.276V364.835L1924.94 356.894L1933.31 352.923L1943.35 327.776L1958.41 216.6L1955.06 208.659L1960.09 203.365L1961.76 190.129H1940V183.512L1960.09 182.188V161.012L1971.8 159.688L1970.13 180.865H1980.17L1981.84 191.453L1970.13 187.482L1968.45 199.394L1971.8 207.335L1966.78 216.6L1971.8 285.423L1978.5 321.159L1995.23 354.247L2003.6 358.217L1998.58 367.482L2000.25 395.276L2008.62 388.659L2047.12 436.306L2053.81 478.659L2102.35 476.012L2104.02 458.806L2134.15 420.423L2140.84 419.1L2142.52 405.865L2137.49 400.57L2155.9 339.688L2159.25 310.57L2160.93 355.57L2179.34 397.923L2175.99 417.776L2211.14 419.1L2234.57 453.512L2232.89 486.6L2242.94 469.394L2363.44 470.718L2365.11 445.57L2415.32 408.512L2410.3 363.512L2403.61 362.188L2438.75 294.688L2455.49 216.6L2450.47 202.041L2458.84 198.07L2463.86 199.394L2465.53 207.335L2480.6 296.012L2490.64 277.482L2492.31 231.159L2502.35 281.453L2510.72 309.247L2509.05 350.276L2512.4 359.541L2504.03 363.512L2505.7 413.806L2547.54 444.247L2560.93 433.659L2591.06 431.012L2587.71 404.541L2614.49 367.482L2612.82 317.188L2627.88 251.012L2629.55 212.629L2634.57 240.423L2641.27 278.806L2668.05 174.247L2669.72 19.394L2678.09 23.3645L2691.48 176.894L2711.56 289.394L2718.26 219.247L2728.3 274.835L2734.99 310.57L2736.67 359.541L2755.08 360.865L2751.73 309.247L2760.1 277.482C2760.1 277.482 2765.12 216.6 2766.79 216.6C2768.47 216.6 2775.16 274.835 2775.16 274.835L2786.88 233.806L2793.57 179.541L2798.59 93.5116L2803.61 -0.458984L2820.35 154.394L2847.13 286.747L2858.84 221.894L2863.86 282.776L2873.91 307.923L2868.89 314.541L2870.56 405.865L2897.34 382.041V371.453L2905.71 366.159V355.57L2910.73 351.6L2914.07 329.1L2915.75 355.57L2920.77 359.541L2919.1 370.129L2924.12 371.453L2922.44 384.688L2940.85 404.541L2942.53 438.953H2970.98L2982.69 448.217L2991.06 440.276L3004.45 442.923L3016.17 429.688L2997.76 427.041L3006.13 415.129L3021.19 417.776L3026.21 401.894L3017.84 393.953L3026.21 386.012L3037.93 393.953L3036.25 399.247L3037.93 416.453L3052.99 417.776L3051.32 425.717L3041.27 424.394L3049.64 440.276C3049.64 440.276 3071.4 440.276 3071.4 441.6C3071.4 442.923 3068.05 453.512 3068.05 453.512L3059.68 452.188L3078.09 474.688L3089.81 464.1L3088.14 335.717L3081.44 333.07L3093.16 313.217L3099.85 273.512L3101.52 229.835L3106.55 228.512L3111.57 292.041L3119.94 327.776L3135 228.512L3141.69 131.894L3146.71 76.3057H3153.41L3170.15 244.394L3181.86 315.865L3188.56 337.041L3200.27 315.865L3201.94 239.1L3206.97 240.423L3217.01 321.159L3222.03 338.365V375.423L3359.27 379.394L3370.98 382.041L3399.44 429.688L3402.78 378.07L3387.72 374.1L3434.58 314.541L3436.26 629.541L1690.63 628.217Z" fill="#2E5A9C"/>
<rect x="1722.14" y="587.613" width="1714.11" height="153.379" fill="#2E5A9C"/>
</g>
<defs>
<clipPath id="clip0">
<rect width="3137" height="1024" fill="white"/>
</clipPath>
</defs>
</svg>
